!!!OTL: Qiong yu fu
!!!ARE: Asia, China,ÿLiaoning, Chaoyiang
!! III, 254
!!!SCT: C1554
!!!YEM: Copyright 1995, estate of Helmut Schaffrath.
**kern
*ICvox
*Ivox
*M2/4
*k[]
*C:
{8cc
16cc
16dd
8ee
8ee
=1
8dd
8cc
4a
=2
8.cc
16dd
8ee
8ee
=3
8dd
4dd
8ee
=4
4cc}
{8a
8dd
=5
4cc
8a
[8g
=6
8g]
8a
4e}
=7
{8a
4a
8cc
=8
4g
8a
8dd
=9
4cc
8a
[8g
=10
8g]
8a
4e}
==
!!!AGN: Xiaodiao, Shidiao, Sizhou diao
!!!AMT: simple duple
!!!AIN: vox
!!!EED: Helmut Schaffrath
!!!EEV: 1.0
*-
!!!ONB: Tied note syntax fixed by Craig Sapp, 2004/05/03/
